la/yarn.svg

<svg xmlns="http://www.w3.org/2000/svg" viewBox="0 0 32 32" height="1em" width="1em">
  <path d="M 16 3 C 8.8 3 3 8.8 3 16 C 3 23.2 8.8 29 16 29 C 23.2 29 29 23.2 29 16 C 29 8.8 23.2 3 16 3 z M 16 5 C 22.1 5 27 9.9 27 16 C 27 22.1 22.1 27 16 27 C 9.9 27 5 22.1 5 16 C 5 9.9 9.9 5 16 5 z M 16.208984 9.0449219 C 15.75918 9.1214844 15.300781 10.5 15.300781 10.5 C 15.300781 10.5 14.099609 10.300781 13.099609 11.300781 C 12.899609 11.500781 12.700391 11.599219 12.400391 11.699219 C 12.300391 11.799219 12.2 11.800391 12 12.400391 C 11.6 13.300391 12.599609 14.400391 12.599609 14.400391 C 10.499609 15.900391 10.599219 17.900391 10.699219 18.400391 C 9.3992187 19.500391 9.8992187 20.900781 10.199219 21.300781 C 10.399219 21.600781 10.599219 21.5 10.699219 21.5 C 10.699219 21.6 10.199219 22.200391 10.699219 22.400391 C 11.199219 22.700391 12.000391 22.800391 12.400391 22.400391 C 12.700391 22.100391 12.800391 21.499219 12.900391 21.199219 C 13.000391 21.099219 13.000391 21.399609 13.400391 21.599609 C 13.400391 21.599609 12.7 21.899609 13 22.599609 C 13.1 22.799609 13.4 23 14 23 C 14.2 23 16.599219 22.899219 17.199219 22.699219 C 17.599219 22.599219 17.699219 22.400391 17.699219 22.400391 C 20.299219 21.700391 20.799609 20.599219 22.599609 20.199219 C 23.199609 20.099219 23.199609 19.099219 22.099609 19.199219 C 21.299609 19.199219 20.6 19.6 20 20 C 19 20.6 18.300781 20.699609 18.300781 20.599609 C 18.200781 20.499609 18.699219 19.3 18.199219 18 C 17.699219 16.6 16.800391 16.199609 16.900391 16.099609 C 17.200391 15.599609 17.899219 14.800391 18.199219 13.400391 C 18.299219 12.500391 18.300391 11.000781 17.900391 10.300781 C 17.800391 10.100781 17.199219 10.5 17.199219 10.5 C 17.199219 10.5 16.600391 9.1996094 16.400391 9.0996094 C 16.337891 9.0496094 16.273242 9.0339844 16.208984 9.0449219 z"/>
</svg>

<svg xmlns="http://www.w3.org/2000/svg" viewBox="0 0 32 32" height="1em" width="1em">
  <path d="M16 3C8.8 3 3 8.8 3 16s5.8 13 13 13 13-5.8 13-13S23.2 3 16 3zm0 2c6.1 0 11 4.9 11 11s-4.9 11-11 11S5 22.1 5 16 9.9 5 16 5zm.209 4.045c-.45.076-.908 1.455-.908 1.455s-1.201-.2-2.201.8c-.2.2-.4.3-.7.4-.1.1-.2.1-.4.7-.4.9.6 2 .6 2-2.1 1.5-2 3.5-1.9 4-1.3 1.1-.8 2.5-.5 2.9.2.3.4.2.5.2 0 .1-.5.7 0 .9.5.3 1.3.4 1.7 0 .3-.3.4-.9.5-1.2.1-.1.1.2.5.4 0 0-.7.3-.4 1 .1.2.4.4 1 .4.2 0 2.6-.1 3.2-.3.4-.1.5-.3.5-.3 2.6-.7 3.1-1.8 4.9-2.2.6-.1.6-1.1-.5-1-.8 0-1.5.4-2.1.8-1 .6-1.7.7-1.7.6-.1-.1.4-1.3-.1-2.6-.5-1.4-1.4-1.8-1.3-1.9.3-.5 1-1.3 1.3-2.7.1-.9.1-2.4-.3-3.1-.1-.2-.7.2-.7.2s-.6-1.3-.8-1.4a.234.234 0 0 0-.191-.055z"/>
</svg>
